public/assets/images/fiscalization.svg

<svg width="60" height="72" viewBox="0 0 60 72" fill="none" xmlns="http://www.w3.org/2000/svg">
<path d="M55 17.7868V24.9604C55 29.644 52.5 32.6083 48.55 32.6083H40V11.8879C40 8.59755 42.275 5.92969 45.05 5.92969C47.775 5.95933 50.275 7.26362 52.075 9.3979C53.875 11.5618 55 14.5261 55 17.7868Z" stroke="#FF588A" stroke-width="3" stroke-miterlimit="10" stroke-linecap="round" stroke-linejoin="round"/>
<path d="M5 20.7511V62.2511C5 64.7115 7.35 66.1047 9 64.6225L13.275 60.8283C14.275 59.939 15.675 60.0575 16.575 61.1247L20.725 66.075C21.7 67.2311 23.3 67.2311 24.275 66.075L28.475 61.095C29.35 60.0575 30.75 59.939 31.725 60.8283L36 64.6225C37.65 66.075 40 64.6818 40 62.2511V11.8583C40 8.59754 42.25 5.92969 45 5.92969H15C7.5 5.92969 5 11.2358 5 17.7868V20.7511Z" stroke="#FF588A" stroke-width="3" stroke-miterlimit="10" stroke-linecap="round" stroke-linejoin="round"/>
<path d="M22.5 38.5661H30M22.5 26.709H30" stroke="#FF588A" stroke-width="3" stroke-linecap="round" stroke-linejoin="round"/>
<path d="M14.99 38.5368H15.0125M14.99 26.6797H15.0125" stroke="#FF588A" stroke-width="3" stroke-linecap="round" stroke-linejoin="round"/>
</svg>

<svg xmlns="http://www.w3.org/2000/svg" width="60" height="72" fill="none"><path stroke="#FF588A" stroke-linecap="round" stroke-linejoin="round" stroke-miterlimit="10" stroke-width="3" d="M55 17.787v7.173c0 4.684-2.5 7.648-6.45 7.648H40v-20.72c0-3.29 2.275-5.958 5.05-5.958 2.725.03 5.225 1.334 7.025 3.468 1.8 2.164 2.925 5.128 2.925 8.389Z"/><path stroke="#FF588A" stroke-linecap="round" stroke-linejoin="round" stroke-miterlimit="10" stroke-width="3" d="M5 20.751v41.5c0 2.46 2.35 3.854 4 2.372l4.275-3.795c1-.889 2.4-.77 3.3.297l4.15 4.95c.975 1.156 2.575 1.156 3.55 0l4.2-4.98c.875-1.038 2.275-1.156 3.25-.267L36 64.622c1.65 1.453 4 .06 4-2.37V11.857c0-3.26 2.25-5.928 5-5.928H15c-7.5 0-10 5.306-10 11.857v2.964Z"/><path stroke="#FF588A" stroke-linecap="round" stroke-linejoin="round" stroke-width="3" d="M22.5 38.566H30M22.5 26.71H30M14.99 38.537h.022M14.99 26.68h.022"/></svg>
